X:1
T: The Castle Hornpipe
C:King Colbath
R:Reel
Q: 232
K:A
M:4/4
L:1/8
|:ED|CE AE CE AE|CE Ac e2 cA|dc Bc de fg|ae cA BA FD|
CE AE CE AE|DF AF DF AF|EG BG EG BG|A2 c2 A2:|
cd|ed cd ea ga|fe dc B2 Bc|dc Bc df ef|gf ed c2 cd|
ea ga fa ga|eb ab gb ab|ec' bc' d'e fg|a2 ag a2 cd|
ec AE CE Ac|fd BA G2 Bc|dB GE B,E GB|cA EC A,2 cd|
ec Ac dc de|fg ae fe cA|Bc df eB GB|A2 c2 A2||
